!!!COM: Palestrina, Giovanni Perluigi da
!!!OPR: Missa O virgo simul et mater
!!!OTL: Kyrie
**kern	**kern	**kern	**kern	**kern
*Ibass	*Itenor	*Icalto	*Icalto	*Icant
!Bassus	!Tenor	!Altus 2	!Altus 1	!Cantus
*clefF4	*clefGv2	*clefG2	*clefG2	*clefG2
*k[b-]	*k[b-]	*k[b-]	*k[b-]	*k[b-]
*G:dor	*G:dor	*G:dor	*G:dor	*G:dor
*M4/2	*M4/2	*M4/2	*M4/2	*M4/2
=1	=1	=1	=1	=1
0r	0r	0r	0r	0g
=2	=2	=2	=2	=2
0r	0r	0r	0d	1dd
.	.	.	.	2dd
.	.	.	.	2ff
=3	=3	=3	=3	=3
0r	0r	0r	1a	2ee
.	.	.	.	2cc
.	.	.	2a	1ee
.	.	.	2cc	.
=4	=4	=4	=4	=4
0r	0G	0r	2b-	1.dd
.	.	.	2g	.
.	.	.	1b-	.
.	.	.	.	2gg
=5	=5	=5	=5	=5
0D	1.d	0r	0a	2ff
.	.	.	.	2dd
.	.	.	.	2.ff
.	2f	.	.	.
.	.	.	.	8ee
.	.	.	.	8dd
=6	=6	=6	=6	=6
1.A	2e	0r	1.a	2cc
.	2c	.	.	2a
.	1e	.	.	1cc
2c	.	.	2g	.
=7	=7	=7	=7	=7
2B-	2d	0d	2b-	0dd
2G	2g	.	4B-	.
.	.	.	4c	.
1B-	2f	.	4d	.
.	.	.	4e	.
.	2d	.	[2f	.
=8	=8	=8	=8	=8
0A	2f	1a	4f]	0r
.	.	.	8e	.
.	.	.	8d	.
.	4e	.	4c	.
.	4d	.	4d	.
.	4c	2a	2e	.
.	4d	.	.	.
.	4e	2cc	2c	.
.	4f	.	.	.
=9	=9	=9	=9	=9
1.G	2.g	2b-	1d	1r
.	.	2g	.	.
.	4f	.	.	.
.	4e	2b-	2g	2r
.	4d	.	.	.
2D	[2d	2a	2f	2dd
=10	=10	=10	=10	=10
1A	2d]	1a	2e	2ee
.	2c#	.	1a	2ee
1r	2d	1r	.	2ff
.	2f	.	2a	2cc
=11	=11	=11	=11	=11
1r	2.B-	2r	2g	1dd
.	.	2d	2.f	.
.	4c	.	.	.
2r	1d	2f	.	[1a
.	.	.	4e	.
2d	.	2f	[2d	.
=12	=12	=12	=12	=12
2e	1A	2e	2d]	0a]
2e	.	2A	2c	.
2f	1r	2r	2d	.
2c	.	2a	2e	.
=13	=13	=13	=13	=13
1d	2r	2a	2.f	2r
.	2d	2b-	.	2ff
.	.	.	8e	.
.	.	.	8d	.
2A	2e	2cc	1c	2ee
2c	2e	2g	.	2ee
=14	=14	=14	=14	=14
2.F	2f	1a	1A	4dd
.	.	.	.	4cc
.	2c	.	.	2.ff
4E	.	.	.	.
1D	1d	2r	1a	.
.	.	.	.	4ee
.	.	2d	.	[2dd
=15	=15	=15	=15	=15
1r	1A	2e	2r	2dd]
.	.	2e	2a	2cc#
2r	1d	2f	2a	1dd
2G	.	2g	2b-	.
=16	=16	=16	=16	=16
2A	2r	1e	4cc	0r
.	.	.	4b-	.
2A	2c	.	4a	.
.	.	.	4g	.
2B-	2d	1d	4f	.
.	.	.	4g	.
2F	2A	.	[2a	.
=17	=17	=17	=17	=17
1G	1B-	1.d	4a]	2r
.	.	.	4g	.
.	.	.	1g	2g
1D	1A	.	.	2a
.	.	2d	2f#	2a
=18	=18	=18	=18	=18
0r	2G	1d	2g	2b-
.	2d	.	2a	2f
.	2.G	1d	4b-	2g
.	.	.	4a	.
.	.	.	4g	[2b-
.	4A	.	4f	.
=19	=19	=19	=19	=19
2r	2B-	1G	2g	4b-]
.	.	.	.	4a
2C	2c	.	2e-	1g
2D	1A	2r	1d	.
2D	.	2d	.	2f#
=20	=20	=20	=20	=20
2E-	[0G	2B-	2r	1g
2BB-	.	2B-	2d	.
1C	.	4e-	2c	2r
.	.	4d	.	.
.	.	[2c	2e-	2cc
=21	=21	=21	=21	=21
1G	0G]	2c]	1d	2dd
.	.	2B	.	2dd
1C	.	2c	1g	2ee-
.	.	2e-	.	[2cc
=22	=22	=22	=22	=22
[0G	[0G	[0d	[0g	2cc]
.	.	.	.	4b
.	.	.	.	4a
.	.	.	.	1b
=23	=23	=23	=23	=23
0G]	0G]	0d]	0g]	0b
=24	=24	=24	=24	=24
0r	1.f	0r	1.a	1.cc
.	2f	.	2a	2cc
=25	=25	=25	=25	=25
0r	2.f	1.f	1a	1cc
.	4e-	.	.	.
.	4d	.	1b-	[1dd
.	4c	.	.	.
.	[2B-	2f	.	.
=26	=26	=26	=26	=26
0r	2B-]	1f	2B-	2dd]
.	2A	.	2c	2cc
.	[1G	[1g	2d	[1b-
.	.	.	[2e-	.
=27	=27	=27	=27	=27
1r	1G]	2g]	4e-]	1b-]
.	.	.	4d	.
.	.	2f	1d	.
2r	1A	2.e	.	[1a
[2A	.	.	4c#	.
.	.	4d	4B	.
=28	=28	=28	=28	=28
2A]	0r	2e	2c#	0a]
2A	.	2f	1d	.
1A	.	2e	.	.
.	.	[2a	2c#	.
=29	=29	=29	=29	=29
1.B-	2r	2a]	2d	0r
.	1d	1g	2G	.
.	.	.	2B-	.
2A	[2c	2f#	2c	.
=30	=30	=30	=30	=30
1G	2c]	1g	2.d	2r
.	2B-	.	.	1dd
.	.	.	4e	.
1F	2.c	1a	1f	.
.	.	.	.	[2cc
.	4d	.	.	.
=31	=31	=31	=31	=31
2.G	2e-	1.g	2r	2cc]
.	2.d	.	2d	2b-
4F	.	.	.	.
2E	.	.	2e	1cc
.	4c	.	.	.
2F	[2c	[2a	2c	.
=32	=32	=32	=32	=32
1D	2c]	2a]	1f	1dd
.	2B	2d	.	.
1C	2.c	2g	2e	2r
.	.	[2e	[2c	2g
.	4B-	.	.	.
=33	=33	=33	=33	=33
0r	4A	2e]	2c]	2.cc
.	4G	.	.	.
.	2F	2.a	2.f	.
.	.	.	.	4b-
.	1r	.	.	2cc
.	.	4g	4e	.
.	.	2a	2f	[2dd
=34	=34	=34	=34	=34
0r	0r	2b-	2.g	4dd]
.	.	.	.	4cc
.	.	2.g	.	4b-
.	.	.	4f	4a
.	.	.	4e	2g
.	.	4f	4d	.
.	.	4e	4c	[2cc
.	.	4d	4B-	.
=35	=35	=35	=35	=35
0r	0r	4c	4A	4cc]
.	.	4d	4G	4b-
.	.	2e-	1g	4b-
.	.	.	.	8a
.	.	.	.	8g
.	.	1d	.	1a
.	.	.	2f#	.
=36	=36	=36	=36	=36
2r	1d	2G	1g	2.b
1G	.	1d	.	.
.	.	.	.	4a
.	2.g	.	1r	2b
[2c	.	[2e	.	[2cc
.	4f	.	.	.
=37	=37	=37	=37	=37
4c]	2g	4e]	1r	4cc]
4B-	.	4d	.	4dd
2c	2.a	2e	.	2cc
2.d	.	1f	2r	1a
.	4g	.	.	.
.	4f	.	[2d	.
4c	4e	.	.	.
=38	=38	=38	=38	=38
4B-	4d	2.g	2d]	0r
4A	4c	.	.	.
2.G	4B-	.	2.g	.
.	4A	8f	.	.
.	.	8e	.	.
.	4B-	1d	.	.
4A	4c	.	4f	.
2B-	[2d	.	2g	.
=39	=39	=39	=39	=39
1A	2d]	1e	2.a	2r
.	2c#	.	.	1a
.	.	.	4g	.
1D	1d	2r	4f	.
.	.	.	4e	.
.	.	[2d	4d	[2dd
.	.	.	4c	.
=40	=40	=40	=40	=40
1G	2r	2d]	2B	4dd]
.	.	.	.	4cc
.	2G	2.g	2b	2dd
1C	2.c	.	[1cc	2.ee
.	.	4f	.	.
.	.	2g	.	.
.	4B-	.	.	4dd
=41	=41	=41	=41	=41
0r	2c	2.a	2cc]	2cc
.	2.d	.	1a	2.ff
.	.	4g	.	.
.	.	2f	.	.
.	4c	.	.	4ee
.	4B-	[2g	[2b-	4dd
.	4A	.	.	4cc
=42	=42	=42	=42	=42
0r	4G	4g]	2b-]	4b-
.	4A	4f	.	4cc
.	2B-	2d	2g	1dd
.	1A	1e	1a	.
.	.	.	.	2cc#
=43	=43	=43	=43	=43
1D	2.f	2.d	1a	[0dd
.	4e	4c	.	.
[1G	4d	4B-	[1b-	.
.	4c	4A	.	.
.	4B-	2G	.	.
.	4A	.	.	.
=44	=44	=44	=44	=44
2G]	2G	0d	2b-]	1dd_
2F#	2A	.	2a	.
1G	1B-	.	1g	1dd_
=45	=45	=45	=45	=45
0D	0A	0d	0f#	0dd]
=46	=46	=46	=46	=46
0r	0r	0r	1.g	1r
.	.	.	.	[1dd
.	.	.	2g	.
=47	=47	=47	=47	=47
0r	2r	0r	2g	2dd]
.	2G	.	2g	2dd
.	4G	.	1b-	2dd
.	4A	.	.	.
.	4B-	.	.	2dd
.	4c	.	.	.
=48	=48	=48	=48	=48
0r	2d	0r	2a	1ff
.	2d	.	2f	.
.	2c	.	2g	2ee
.	2A	.	2a	2cc
=49	=49	=49	=49	=49
0r	2G	0r	2b-	2dd
.	2c	.	1a	2ee
.	2d	.	.	2ff
.	2e	.	2g	[2ee
=50	=50	=50	=50	=50
0r	2f	1r	2a	4ee]
.	.	.	.	4dd
.	2g	.	2b-	1dd
.	1e	2r	2.g	.
.	.	[2g	.	2cc#
.	.	.	4a	.
=51	=51	=51	=51	=51
1.G	1d	2g]	4b-	1dd
.	.	.	4a	.
.	.	2g	4b-	.
.	.	.	4cc	.
.	2r	2g	1b-	2r
2G	[2d	2g	.	2g
=52	=52	=52	=52	=52
2G	2d]	2.b-	1g	4g
.	.	.	.	4a
2G	2d	.	.	4b-
.	.	8a	.	4cc
.	.	8g	.	.
1B-	2d	2f	1r	2dd
.	2d	2g	.	2dd
=53	=53	=53	=53	=53
2A	1f	4a	0r	2cc
.	.	4b-	.	.
2F	.	4cc	.	2a
.	.	4a	.	.
2G	2e	2b-	.	2g
2A	2c	[2a	.	2f
=54	=54	=54	=54	=54
2B-	2d	4a]	0r	1g
.	.	4g	.	.
2c	2e	1g	.	.
1A	1c	.	.	1cc
.	.	2f#	.	.
=55	=55	=55	=55	=55
2.G	1d	2.g	2r	1b-
.	.	.	1g	.
4A	.	8f	.	.
.	.	8e	.	.
2B-	1r	2d	.	1r
[2c	.	[2e	2g	.
=56	=56	=56	=56	=56
2c]	1r	2e]	2g	1cc
4B-	.	4d	2g	.
4A	.	4c	.	.
1G	2r	1g	1b-	2dd
.	2B-	.	.	2ee
=57	=57	=57	=57	=57
1F	2c	1r	2a	4ff
.	.	.	.	4ee-
.	2d	.	2f	4dd
.	.	.	.	4cc
1r	2e-	2r	2g	4b-
.	.	.	.	4cc
.	2d	2f	2a	2dd
=58	=58	=58	=58	=58
0r	2g	2g	2b-	2ee-
.	2f#	2a	2.a	1dd
.	2g	2b-	.	.
.	.	.	4g	.
.	2e-	4a	[2g	2cc
.	.	4g	.	.
=59	=59	=59	=59	=59
1r	1d	2b-	2g]	2.dd
.	.	2.a	2f#	.
.	.	.	.	4cc
2r	1G	.	1g	1b-
.	.	4g	.	.
2B-	.	[2g	.	.
=60	=60	=60	=60	=60
2c	0r	2g]	0r	1a
2d	.	2f#	.	.
[1e-	.	1g	.	2g
.	.	.	.	2b-
=61	=61	=61	=61	=61
2e-]	2r	[0g	0r	2cc
2d	2B-	.	.	2dd
2c	2c	.	.	2ee-
2B	2d	.	.	[2dd
=62	=62	=62	=62	=62
1c	1e-	0g]	2r	4dd]
.	.	.	.	4cc
.	.	.	2c	1cc
1G	2d	.	2d	.
.	2G	.	2e	2b-
=63	=63	=63	=63	=63
1F	1c	2r	2f	4a
.	.	.	.	4b-
.	.	2f	2a	4cc
.	.	.	.	4a
2r	1r	2g	2g	4b-
.	.	.	.	4cc
2F	.	2a	2f	[2dd
=64	=64	=64	=64	=64
2G	0r	2b-	1e	2dd]
2A	.	4a	.	2cc#
.	.	4g	.	.
[1B-	.	4f	2d	1dd
.	.	4e	.	.
.	.	4d	2f	.
.	.	4c	.	.
=65	=65	=65	=65	=65
2B-]	2r	1d	2g	1dd
2A	2F	.	2a	.
2G	2G	1d	2b-	2dd
2F#	2A	.	[2a	2dd
=66	=66	=66	=66	=66
1G	1B-	2r	4a]	0dd
.	.	.	4g	.
.	.	2g	1g	.
1D	1A	2a	.	.
.	.	2a	2f#	.
=67	=67	=67	=67	=67
1G	2G	4b-	[0g	1dd
.	.	4a	.	.
.	2B-	4g	.	.
.	.	4f	.	.
2r	2c	2e-	.	2r
2G	2d	2d	.	2b-
=68	=68	=68	=68	=68
2C	2e-	2c	0g]	2cc
2G	2.d	2B	.	2dd
1C	.	1c	.	1ee-
.	4c	.	.	.
.	[2c	.	.	.
=69	=69	=69	=69	=69
[0G	2c]	[0d	[0g	[0dd
.	4B	.	.	.
.	4A	.	.	.
.	1B	.	.	.
=70	=70	=70	=70	=70
0G]	0B	0d]	0g]	0dd]
==	==	==	==	==
*-	*-	*-	*-	*-
!!!CDT: 1525/^1526/-1594/2/2
!!!OCY: Italia
!!!AGN: Mass (Parody)
!!!AST: renaissance, vocal
!!!ASW: Motet 1572 (Palestrina)
!!!PWK: Masses, Book 10
!!!RNB: Cadence finals: D
!!!YOR: Le Opere Complete, v. 27, p. 89
!!!YOO: Rome, Italy: Fratelli Scalera
!!!END: 1992//
!!!EED: John Miller
!!!YEC: Copyright 2000, John Miller
!!!YEN: United States of America
!!!YEM: Rights to all derivative electronic formats reserved.
!!!YEM: Refer to licensing agreement for further details.
!!!YEM: This file must be accompanied by the licensing agreement.
!!!YEM: A copy of the licensing agreement may be found at http://www.music-cog.ohio-state.edu/HumdrumDatabases/Palestrina/license.txt
!!!EMD: converted to Humdrum by Bret Aarden
